X: 13114
T: Fireman's
R: reel
M: 4/4
K: Gmajor
|:D2|GBAB GB D2|GB2d e2 d2|gfgd edBG|1 ABAG E2:|2 A2 A2 G2|
|:(3def|gg2a gefd|edBd edBd|gg2a gfed|edBG A2 (3def|
gg2a gefd|edBd edBd|eg2e dBAG|FDEF G2:|

